src/main/resources/icons/CucumberIcons/org/jetbrains/plugins/cucumber/icons/cucumberS_dark.svg

<svg width="16" height="16" viewBox="0 0 16 16" fill="none" xmlns="http://www.w3.org/2000/svg">
<path fill-rule="evenodd" clip-rule="evenodd" d="M2 7.17503C2 3.76209 4.71205 1 8.06333 1C11.4146 1 14.2275 3.80751 13.9877 7.65836C13.748 11.5092 10.5349 14.4428 6.90623 15V13.2321C4.11502 12.6767 2 10.1799 2 7.17503ZM8 11.5C10.4853 11.5 12.5 9.48528 12.5 7C12.5 4.51472 10.4853 2.5 8 2.5C5.51472 2.5 3.5 4.51472 3.5 7C3.5 9.48528 5.51472 11.5 8 11.5Z" fill="#00A817"/>
<path d="M5.73755 8.2688H6.72192C6.75317 8.5214 6.88468 8.72323 7.11646 8.87427C7.34823 9.02271 7.6425 9.09692 7.99927 9.09692C8.3326 9.09692 8.60604 9.0214 8.81958 8.87036C9.03573 8.71672 9.1438 8.5214 9.1438 8.28442C9.1438 8.0813 9.06177 7.91593 8.89771 7.78833C8.73625 7.66073 8.47453 7.55526 8.11255 7.47192L7.38208 7.30396C6.87166 7.18937 6.49276 7.00317 6.24536 6.74536C6.00057 6.48494 5.87817 6.1451 5.87817 5.72583C5.87817 5.21281 6.06958 4.80135 6.45239 4.49146C6.83781 4.17896 7.34562 4.02271 7.97583 4.02271C8.56698 4.02271 9.05656 4.17635 9.44458 4.48364C9.8326 4.79093 10.0383 5.18677 10.0618 5.67114H9.09692C9.06307 5.42375 8.94458 5.22713 8.74146 5.0813C8.53833 4.93547 8.28182 4.86255 7.97192 4.86255C7.6464 4.86255 7.38468 4.93547 7.18677 5.0813C6.99146 5.22453 6.8938 5.41593 6.8938 5.65552C6.8938 5.84562 6.97062 6.00057 7.12427 6.12036C7.27791 6.23755 7.52922 6.33651 7.87817 6.41724L8.52661 6.56567C9.09692 6.69328 9.50968 6.88338 9.76489 7.13599C10.0227 7.38859 10.1516 7.72974 10.1516 8.15942C10.1516 8.7089 9.95239 9.1438 9.55396 9.46411C9.15812 9.78182 8.61906 9.94067 7.93677 9.94067C7.29093 9.94067 6.7688 9.78963 6.37036 9.48755C5.97453 9.18547 5.76359 8.77922 5.73755 8.2688Z" fill="#BABABA"/>
</svg>

<svg width="16" height="16" viewBox="0 0 16 16" fill="none" xmlns="http://www.w3.org/2000/svg"><rect id="frame" width="16" height="16" fill="none"/><path fill-rule="evenodd" clip-rule="evenodd" d="M2 7.175C2 3.762 4.712 1 8.063 1c3.352 0 6.164 2.808 5.925 6.658-.24 3.851-3.453 6.785-7.082 7.342v-1.768C4.115 12.677 2 10.18 2 7.175zM8 11.5a4.5 4.5 0 1 0 0-9 4.5 4.5 0 0 0 0 9z" fill="#00A817"/><path d="M5.738 8.269h.984a.82.82 0 0 0 .394.605c.232.149.527.223.883.223.334 0 .607-.076.82-.227.217-.153.325-.349.325-.586a.6.6 0 0 0-.246-.496c-.162-.127-.423-.233-.785-.316l-.73-.168c-.511-.115-.89-.3-1.138-.559-.244-.26-.367-.6-.367-1.02 0-.512.192-.924.574-1.234.386-.312.894-.468 1.524-.468.591 0 1.08.153 1.469.46.388.308.593.704.617 1.188h-.965a.838.838 0 0 0-.356-.59c-.203-.146-.46-.218-.77-.218-.325 0-.586.072-.784.218a.677.677 0 0 0-.293.575c0 .19.077.345.23.464.154.118.405.217.754.297l.649.149c.57.127.983.317 1.238.57.258.253.387.594.387 1.023 0 .55-.2.985-.598 1.305-.396.318-.935.477-1.617.477-.646 0-1.168-.151-1.567-.453a1.561 1.561 0 0 1-.632-1.22z" fill="#BABABA"/></svg>
